icons/knowledge-graph-dashboard-24.svg

<svg id="icons" xmlns="http://www.w3.org/2000/svg" viewBox="0 0 24 24"><path d="M2,14V4H20v7.85052l.56494.33893A2.47019,2.47019,0,0,1,21,12.05548V1.875A.87606.87606,0,0,0,20.125,1H1.875A.87606.87606,0,0,0,1,1.875v12.25A.87606.87606,0,0,0,1.875,15h8.1756a2.4767,2.4767,0,0,1,.46216-1ZM2,2H20V3H2Zm8,5h1v5H4V5H5v6H6V8H7v3H8V6H9v5h1Zm3-1h1V7H13Zm6,0V7H15V6ZM13,8h1V9H13Zm6,1H15V8h4Zm-6,1h1v1H13Zm6,1h-.0614a2.48416,2.48416,0,0,0-.44226-1H19Zm2.5,2a1.48556,1.48556,0,0,0-.94873.34784L17.96979,11.799A1.5,1.5,0,1,0,15,11.5a1.48331,1.48331,0,0,0,.15027.64258l-2.00781,2.00763A1.48274,1.48274,0,0,0,12.5,14a1.49664,1.49664,0,0,0-.21436,2.97833l.44794,2.23926a1.49533,1.49533,0,1,0,2.08826,1.97626l4.208.60132A1.499,1.499,0,1,0,21.194,20.17822l.6012-4.20807A1.49971,1.49971,0,0,0,21.5,13ZM21,22H20V21h1Zm-8-1V20h1v1Zm-1-6h1v1H12Zm1.78247,1.26636,2.2392.44781a1.4806,1.4806,0,0,0,.13794.44556l-2.01129,1.99365a1.47825,1.47825,0,0,0-.43409-.13171l-.44775-2.23926A1.50152,1.50152,0,0,0,13.78247,16.26636ZM17,11v1H16V11Zm.26636,1.78247a1.49389,1.49389,0,0,0,.18243-.13037l2.58142,1.549A1.50267,1.50267,0,0,0,20,14.5a1.47568,1.47568,0,0,0,.01837.18176l-1.48.74a1.49165,1.49165,0,0,0-.82422-.40008ZM17,17V16h1v1Zm-2.15027,2.85742,2.00787-2.00757a1.44448,1.44448,0,0,0,.96259.114l1.53217,2.582a1.49629,1.49629,0,0,0-.17414.26013l-4.208-.60089A1.48124,1.48124,0,0,0,14.84973,19.85742Zm5.35144.17279-1.549-2.58154a1.34714,1.34714,0,0,0,.32941-1.13025l1.4801-.74011a1.50227,1.50227,0,0,0,.3443.24347l-.6012,4.20807ZM21,15V14h1v1Zm-5.14258-2.15027a1.48253,1.48253,0,0,0,.42841.1286l.44781,2.2392a1.50049,1.50049,0,0,0-.51611.51611l-2.2392-.44781a1.481,1.481,0,0,0-.12848-.42823Z"/><path fill="none" d="M0 0h24v24H0z"/></svg>

<svg xmlns="http://www.w3.org/2000/svg" viewBox="0 0 24 24"><path d="M2 14V4h18v7.85l.565.34a2.47 2.47 0 0 1 .435-.135V1.875A.876.876 0 0 0 20.125 1H1.875A.876.876 0 0 0 1 1.875v12.25a.876.876 0 0 0 .875.875h8.176a2.477 2.477 0 0 1 .462-1zM2 2h18v1H2zm8 5h1v5H4V5h1v6h1V8h1v3h1V6h1v5h1zm3-1h1v1h-1zm6 0v1h-4V6zm-6 2h1v1h-1zm6 1h-4V8h4zm-6 1h1v1h-1zm6 1h-.061a2.484 2.484 0 0 0-.443-1H19zm2.5 2a1.486 1.486 0 0 0-.949.348l-2.581-1.549A1.5 1.5 0 1 0 15 11.5a1.483 1.483 0 0 0 .15.643l-2.008 2.007A1.483 1.483 0 0 0 12.5 14a1.497 1.497 0 0 0-.214 2.978l.448 2.24a1.495 1.495 0 1 0 2.088 1.976l4.208.601a1.499 1.499 0 1 0 2.164-1.617l.601-4.208A1.5 1.5 0 0 0 21.5 13zm-.5 9h-1v-1h1zm-8-1v-1h1v1zm-1-6h1v1h-1zm1.782 1.266l2.24.448a1.48 1.48 0 0 0 .138.446l-2.012 1.993a1.478 1.478 0 0 0-.434-.131l-.448-2.24a1.502 1.502 0 0 0 .516-.516zM17 11v1h-1v-1zm.266 1.782a1.494 1.494 0 0 0 .183-.13l2.581 1.55a1.503 1.503 0 0 0-.03.298 1.476 1.476 0 0 0 .018.182l-1.48.74a1.492 1.492 0 0 0-.824-.4zM17 17v-1h1v1zm-2.15 2.857l2.008-2.007a1.444 1.444 0 0 0 .962.114l1.532 2.582a1.496 1.496 0 0 0-.174.26l-4.208-.6a1.481 1.481 0 0 0-.12-.349zm5.351.173l-1.549-2.581a1.347 1.347 0 0 0 .33-1.13l1.48-.74a1.502 1.502 0 0 0 .344.243l-.601 4.208zM21 15v-1h1v1zm-5.143-2.15a1.483 1.483 0 0 0 .429.128l.448 2.24a1.5 1.5 0 0 0-.516.516l-2.24-.448a1.481 1.481 0 0 0-.128-.428z"/><path fill="none" d="M0 0h24v24H0z"/></svg>
